svg/church-center/give-heart.svg

<svg width="16" height="16" viewBox="0 0 16 16" fill="none" xmlns="http://www.w3.org/2000/svg">
<path d="M16 5.11198C16 8.14252 13.3051 10.5842 9.17931 14.4156L8.16836 15.2154C8.09034 15.2767 7.99404 15.3099 7.89487 15.3099C7.7957 15.3099 7.6994 15.2767 7.62138 15.2154L6.69543 14.4156C2.70061 10.5422 0.000731637 8.14252 0.000731637 5.11198C-0.00998079 4.5285 0.0970401 3.94885 0.315401 3.40766C0.533761 2.86646 0.858981 2.37483 1.27163 1.96213C1.68428 1.54943 2.17589 1.22414 2.71709 1.00568C3.2583 0.787216 3.83799 0.680076 4.42153 0.690655C5.07994 0.683035 5.73171 0.822739 6.32914 1.09954C6.92657 1.37634 7.45453 1.78322 7.87437 2.29041C7.90519 2.31183 7.94183 2.32331 7.97937 2.32331C8.0169 2.32331 8.05354 2.31183 8.08436 2.29041C8.53151 1.80381 9.07151 1.41158 9.67258 1.13684C10.2736 0.862098 10.9236 0.710392 11.5842 0.690655C12.756 0.69198 13.8793 1.15841 14.7073 1.98746C15.5353 2.8165 16.0003 3.94033 16 5.11198V5.11198ZM7.1584 6.83772C7.1584 6.54277 7.41139 6.41678 7.87437 6.41678C8.11876 6.41416 8.36152 6.45688 8.59034 6.54277C8.83378 6.61196 9.06206 6.72625 9.26331 6.87971L10.1053 6.07984C9.89497 5.87589 9.65322 5.70709 9.3893 5.57991C9.10429 5.4188 8.78904 5.31838 8.46334 5.28496V4.48508H7.50039V5.32695C7.05124 5.36225 6.62435 5.53704 6.27944 5.82687C6.13132 5.9498 6.01279 6.1045 5.93264 6.27949C5.85249 6.45449 5.81278 6.64528 5.81647 6.83772C5.81546 7.09168 5.88843 7.34043 6.02646 7.55361C6.17711 7.7519 6.36242 7.92127 6.57343 8.05354C6.79961 8.19064 7.03959 8.30357 7.2894 8.39048C7.54239 8.47447 7.79537 8.55846 8.00537 8.64245C8.19462 8.71089 8.37763 8.79552 8.55234 8.89541C8.61209 8.93038 8.66249 8.97929 8.69923 9.03797C8.73597 9.09664 8.75797 9.16334 8.76333 9.23236C8.76333 9.35834 8.67933 9.44233 8.55234 9.52731C8.38589 9.62593 8.19338 9.67161 8.00037 9.65829C7.68525 9.64704 7.37339 9.59047 7.07441 9.49032C6.75374 9.37689 6.44358 9.23571 6.14745 9.06838L5.51648 10.0372C5.80157 10.2442 6.11296 10.4124 6.44244 10.5372C6.76837 10.6607 7.10767 10.7456 7.45339 10.7901V11.758H8.42135V10.8001C8.88928 10.7257 9.32689 10.5213 9.68429 10.2102V10.2102C9.82111 10.0718 9.92885 9.9075 10.0012 9.72685C10.0735 9.5462 10.1089 9.35291 10.1053 9.15837C10.1266 8.90194 10.0518 8.64675 9.89528 8.44248C9.75512 8.23451 9.56723 8.0631 9.3473 7.94255C9.122 7.80314 8.88229 7.68849 8.63234 7.6006C8.37935 7.51662 8.12636 7.43163 7.91637 7.34764C7.72487 7.30334 7.54046 7.23268 7.36839 7.13768C7.2424 7.04769 7.1584 6.9637 7.1584 6.83772Z" fill="black"/>
</svg>

<svg id="Layer_1" data-name="Layer 1" xmlns="http://www.w3.org/2000/svg" viewBox="0 0 16 16"><title>give-heart</title><path d="M11.579.689ZM16,5.111c0,3.031-2.695,5.473-6.821,9.305l-1.011.8a.443.443,0,0,1-.547,0l-.926-.8C2.7,10.542,0,8.142,0,5.111A4.343,4.343,0,0,1,4.421.689a4.416,4.416,0,0,1,3.453,1.6.184.184,0,0,0,.21,0,4.954,4.954,0,0,1,3.5-1.6A4.421,4.421,0,0,1,16,5.111ZM7.158,6.837c0-.295.253-.421.716-.421a1.977,1.977,0,0,1,.716.126,2.021,2.021,0,0,1,.673.337l.842-.8a2.732,2.732,0,0,0-.716-.5,2.374,2.374,0,0,0-.926-.295v-.8H7.5v.842a2.161,2.161,0,0,0-1.221.5,1.282,1.282,0,0,0-.463,1.011,1.308,1.308,0,0,0,.21.716,2.063,2.063,0,0,0,.547.5,3.773,3.773,0,0,0,.716.337c.253.084.506.168.716.252a3.5,3.5,0,0,1,.547.253.429.429,0,0,1,.211.337c0,.126-.084.21-.211.295A.954.954,0,0,1,8,9.658a3.284,3.284,0,0,1-.926-.168,5.85,5.85,0,0,1-.927-.422l-.631.969a3.969,3.969,0,0,0,.926.5,4.457,4.457,0,0,0,1.011.253v.968h.968V10.8a2.529,2.529,0,0,0,1.263-.59h0a1.458,1.458,0,0,0,.421-1.052,1.036,1.036,0,0,0-.21-.716,1.572,1.572,0,0,0-.548-.5A3.676,3.676,0,0,0,8.632,7.6c-.253-.084-.506-.169-.716-.253a2.124,2.124,0,0,1-.548-.21C7.242,7.047,7.158,6.963,7.158,6.837Z"/></svg>
